X:304
T: Engelspiel
N: A0653
O: Europa, Mitteleuropa, Deutschland
N: Strassburger Hs.
R: Romanze, Ballade, Lied, religioeses Lied
M: 3/2
L: 1/4
K: F
C2 | DEF2G2 | DEF2
F2 | ABc2B2 | c2G2
G2 | ABc2A2 | BAB2
G2 | AGA2F2 | A2G2DE | F2F2

@@@ Tune index: 617
